dist/assets/img/svg/cb-01.svg

<svg width="18" height="18" viewBox="0 0 18 18"  xmlns="http://www.w3.org/2000/svg">
<g id="svg-gobbler (76) 1" clip-path="url(#clip0_228_984)">
<g id="Group">
<path id="Vector" d="M9.00116 9.34695C11.5726 9.34695 13.6746 7.24492 13.6746 4.67348C13.6746 2.10203 11.5726 0 9.00116 0C6.42972 0 4.32773 2.10203 4.32773 4.67348C4.32773 7.24492 6.42976 9.34695 9.00116 9.34695ZM17.0216 13.0816C16.8991 12.7755 16.7359 12.4898 16.5522 12.2245C15.6134 10.8367 14.1645 9.91836 12.5318 9.69387C12.3278 9.67348 12.1033 9.71426 11.94 9.83672C11.0828 10.4694 10.0625 10.7959 9.0012 10.7959C7.93995 10.7959 6.91956 10.4694 6.06241 9.83672C5.89913 9.71426 5.67464 9.65305 5.47058 9.69387C3.83792 9.91836 2.36855 10.8367 1.45019 12.2245C1.26651 12.4898 1.10323 12.7959 0.980812 13.0816C0.919601 13.2041 0.939991 13.347 1.0012 13.4694C1.16448 13.7551 1.36855 14.0409 1.55222 14.2857C1.83792 14.6735 2.14405 15.0204 2.49101 15.347C2.77671 15.6327 3.10323 15.898 3.4298 16.1633C5.04202 17.3674 6.98081 18 8.98081 18C10.9808 18 12.9196 17.3673 14.5318 16.1633C14.8583 15.9184 15.1849 15.6327 15.4706 15.347C15.7971 15.0204 16.1237 14.6735 16.4094 14.2857C16.6135 14.0204 16.7972 13.7551 16.9604 13.4694C17.0624 13.347 17.0828 13.2041 17.0216 13.0816Z" />
</g>
</g>
<defs>
<clipPath id="clip0_228_984">
<rect width="18" height="18" fill="white"/>
</clipPath>
</defs>
</svg>

<svg width="18" height="18" xmlns="http://www.w3.org/2000/svg"><g clip-path="url(#clip0_228_984)"><path d="M9.001 9.347a4.686 4.686 0 004.674-4.674A4.686 4.686 0 009 0a4.686 4.686 0 00-4.673 4.673A4.686 4.686 0 009 9.347zm8.02 3.735a4.358 4.358 0 00-.469-.857c-.939-1.388-2.387-2.307-4.02-2.531a.86.86 0 00-.592.143 4.916 4.916 0 01-2.939.959 4.916 4.916 0 01-2.939-.96.766.766 0 00-.591-.142 5.767 5.767 0 00-4.02 2.53 5.022 5.022 0 00-.47.858.434.434 0 00.02.387c.163.286.368.572.551.817.286.388.592.734.939 1.061.286.286.612.551.939.816A9.246 9.246 0 008.98 18c2 0 3.94-.633 5.552-1.837.326-.245.653-.53.939-.816.326-.327.653-.673.938-1.061.204-.266.388-.53.551-.817.102-.122.123-.265.062-.387z"/></g><defs><clipPath id="clip0_228_984"><path fill="#fff" d="M0 0h18v18H0z"/></clipPath></defs></svg>347 1.0012 13.4694C1.16448 13.7551 1.36855 14.0409 1.55222 14.2857C1.83792 14.6735 2.14405 15.0204 2.49101 15.347C2.77671 15.6327 3.10323 15.898 3.4298 16.1633C5.04202 17.3674 6.98081 18 8.98081 18C10.9808 18 12.9196 17.3673 14.5318 16.1633C14.8583 15.9184 15.1849 15.6327 15.4706 15.347C15.7971 15.0204 16.1237 14.6735 16.4094 14.2857C16.6135 14.0204 16.7972 13.7551 16.9604 13.4694C17.0624 13.347 17.0828 13.2041 17.0216 13.0816Z" />
</g>
</g>
<defs>
<clipPath id="clip0_228_984">
<rect width="18" height="18" fill="white"/>
</clipPath>
</defs>
</svg>
